X:1
T:Title
%%score { 1 | ( 2 3 ) }
L:1/8
M:6/8
K:F
V:1 treble nm="Grand Piano"
V:2 bass 
V:3 bass 
V:1
 z3 z2[Q:1/4=90] C | [CA]>AA FGA | [Ec] [DB]2- [DB]2 B | [CA]>GF CFA |[M:5/8] [B,G]-[B,G]- [B,G]3 | %5
[M:1/8] B |[M:3/4] [CA]>A AF GA | [DB][Fd]- [Fd]3 B | [CA]>G F[=B,G] DE | %9
[M:5/8] [A,F]-[A,F]- [A,F]3 |[M:1/8] c |[M:3/4] c>=B cd cB | cA- A3 F | F>f f e2 d | %14
[M:5/8] c-c- c3 |[M:1/8] c |[M:3/4] [Ec]>[EG] [EG][EG] [EA][EB] | Ac- c3 A | %18
 F>F F[=B,DF] [B,DE][B,DF] |[M:5/8] [CEG]-[CEG]- [CEG]3 |[M:1/8] [EBc] | %21
[M:3/4] [Ac]>[Ac] [Ac]B cd | c[Af]- [Af]3 [Fd] | [Fc]>[CFA] [A,F] [CFA]2 [B,EG] | %24
[M:5/8] [A,CF]-[A,CF]- [A,CF]3 |] %25
V:2
 z3 z2 A, | z z/ C/C A,B,C | B,,D,F, B,2 D | z z/ B,/A, A,A,C |[M:5/8] C,,E,,G,, C,2 |[M:1/8] D | %6
[M:3/4] z z/[K:treble] C/ CA, B,C | B,,D, F, B,2 D | z z/ B,/ .A,2 =B,[C,_B,] | %9
[M:5/8] [F,,F,]-[F,,F,]- [F,,F,]3 |[M:1/8] [F,A,F] | %11
[M:3/4] [F,A,F]>[F,_A,F] [F,=A,F][F,B,F] [F,A,F][F,_A,F] | [F,A,F][F,CF]- [F,CF]3 [F,A,_E] | %13
 [B,D]>[B,DF] [B,DF] [B,CF]2 [B,F] |[M:5/8][K:bass] [F,A,F]-[F,A,F]- [F,A,F]3 |[M:1/8] [F,A,F] | %16
[M:3/4] [C,G,]>[C,B,] [C,B,][C,B,] [C,A,][C,G,] | [F,F][F,A,F]- [F,A,F]3 [F,A,C] | %18
 [D,A,D]>[D,A,D] [D,A,D]G,, G,,G,, |[M:5/8] C,-C,- C,3 |[M:1/8] C, | %21
[M:3/4] [F,F]>[F,F] [F,_E][K:treble][B,DF] [A,CF][B,F] | [F,A,F][F,C]- [F,C]3 [B,,B,] | %23
 [C,A,]>C, D, C,2 C, |[M:5/8] F,-F,- F,3 |] %25
V:3
 x6 | [F,,F,]6 | x6 | [F,,F,]6 |[M:5/8] x5 |[M:1/8] x |[M:3/4] [F,,F,]6[K:treble] | x6 | %8
 C,3 .G,,3 |[M:5/8] x5 |[M:1/8] x |[M:3/4] x6 | x6 | x6 |[M:5/8][K:bass] x5 |[M:1/8] x | %16
[M:3/4] x6 | x6 | x6 |[M:5/8] x5 |[M:1/8] x |[M:3/4] x3[K:treble] x3 | x6 | x6 |[M:5/8] x5 |] %25

